img/svg/editors/archive.svg

<svg width="28" height="28" viewBox="0 0 28 28" fill="none" xmlns="http://www.w3.org/2000/svg">
<path d="M3 21.875C3 22.6521 3.28941 23.3994 3.80859 23.9727L3.91504 24.085C4.50109 24.671 5.2962 25 6.125 25H21.875C22.7038 25 23.4989 24.671 24.085 24.085C24.671 23.4989 25 22.7038 25 21.875V8.25H3V21.875ZM9.625 12.75H18.375C18.4745 12.75 18.5703 12.789 18.6406 12.8594C18.7109 12.9297 18.75 13.0255 18.75 13.125C18.75 13.2245 18.7109 13.3203 18.6406 13.3906C18.5703 13.461 18.4745 13.5 18.375 13.5H9.625C9.52554 13.5 9.4297 13.461 9.35938 13.3906C9.28905 13.3203 9.25 13.2245 9.25 13.125C9.25 13.0255 9.28905 12.9297 9.35938 12.8594C9.4297 12.789 9.52554 12.75 9.625 12.75ZM1.25 7.5H26.75V3H1.25V7.5ZM2.25 8.25H1.75C1.45995 8.25 1.18043 8.14902 0.958008 7.9668L0.866211 7.88379C0.631791 7.64937 0.5 7.33152 0.5 7V3.5C0.5 3.20995 0.600985 2.93043 0.783203 2.70801L0.866211 2.61621C1.07122 2.4112 1.33999 2.28436 1.62598 2.25586L1.75 2.25H26.25C26.5815 2.25 26.8994 2.38179 27.1338 2.61621C27.3682 2.85063 27.5 3.16848 27.5 3.5V7C27.5 7.29005 27.399 7.56957 27.2168 7.79199L27.1338 7.88379C26.8994 8.11821 26.5815 8.25 26.25 8.25H25.75V21.875C25.75 22.8385 25.3908 23.7647 24.7471 24.4756L24.6152 24.6152C23.8885 25.3419 22.9027 25.75 21.875 25.75H6.125C5.16147 25.75 4.23526 25.3908 3.52441 24.7471L3.38477 24.6152C2.65806 23.8885 2.25 22.9027 2.25 21.875V8.25Z" fill="#030303" stroke="#FBFBFB"/>
</svg>

<svg width="28" height="28" fill="none" xmlns="http://www.w3.org/2000/svg"><path d="M3 21.875c0 .777.29 1.524.809 2.098l.106.112a3.126 3.126 0 002.21.915h15.75A3.126 3.126 0 0025 21.875V8.25H3v13.625zm6.625-9.125h8.75a.375.375 0 110 .75h-8.75a.375.375 0 110-.75zM1.25 7.5h25.5V3H1.25v4.5zm1 .75h-.5c-.29 0-.57-.101-.792-.283l-.092-.083A1.25 1.25 0 01.5 7V3.5c0-.29.101-.57.283-.792l.083-.092a1.25 1.25 0 01.76-.36l.124-.006h24.5A1.25 1.25 0 0127.5 3.5V7c0 .29-.101.57-.283.792l-.083.092a1.25 1.25 0 01-.884.366h-.5v13.625c0 .963-.36 1.89-1.003 2.6l-.132.14a3.875 3.875 0 01-2.74 1.135H6.125c-.964 0-1.89-.36-2.6-1.003l-.14-.132a3.875 3.875 0 01-1.135-2.74V8.25z" fill="#030303" stroke="#FBFBFB"/></svg>
